X:104
T:Peacock's Fancy
Z:Jack Campin, http://www.campin.me.uk/
S:Northumbrian Minstrelsy
M:6/8
L:1/8
K:G
D|G3  B2G|c2A B2G|c2A Acd|e3- e2
f|g2e f2d|B2d g2e|dBG A2G|E3- E2:|
f|g2f efg|a2f d2f|g2e faf|e3- e2
f|g2e f2d|B2d g2e|dBG A2G|E3- E2:|

